images/lk-icon-hover.svg

<svg width="25" height="25" viewBox="0 0 25 25" fill="none" xmlns="http://www.w3.org/2000/svg">
	<g clip-path="url(#clip0_4_562)">
		<path d="M0.580017 12.0801C0.580017 5.45266 5.9526 0.0800781 12.58 0.0800781C19.2074 0.0800781 24.58 5.45266 24.58 12.0801C24.58 18.7075 19.2074 24.0801 12.58 24.0801C5.9526 24.0801 0.580017 18.7075 0.580017 12.0801Z" fill="#0A66C2" />
		<path fill-rule="evenodd" clip-rule="evenodd" d="M9.23949 7.49143C9.23949 8.27598 8.64893 8.90375 7.7007 8.90375H7.68332C6.77034 8.90375 6.18011 8.27598 6.18011 7.49143C6.18011 6.69028 6.78831 6.08008 7.71862 6.08008C8.64893 6.08008 9.22184 6.69028 9.23949 7.49143ZM9.0604 10.0189V18.1898H6.34094V10.0189H9.0604ZM18.868 18.1899L18.8681 13.505C18.8681 10.9953 17.5265 9.82721 15.737 9.82721C14.2931 9.82721 13.6467 10.6203 13.2857 11.1766V10.0193H10.566C10.6018 10.786 10.566 18.1902 10.566 18.1902H13.2857V13.6269C13.2857 13.3827 13.3034 13.1391 13.3753 12.9642C13.5718 12.4764 14.0194 11.9713 14.7707 11.9713C15.7551 11.9713 16.1486 12.7205 16.1486 13.8185V18.1899H18.868Z" fill="white" />
	</g>
	<defs>
		<clipPath id="clip0_4_562">
			<rect width="24" height="24" fill="white" transform="translate(0.580017 0.0800781)" />
		</clipPath>
	</defs>
</svg>

<svg xmlns="http://www.w3.org/2000/svg" width="25" height="25" fill="none"><g clip-path="url(#a)"><path fill="#0A66C2" d="M.58 12.08c0-6.627 5.373-12 12-12s12 5.373 12 12-5.373 12-12 12-12-5.372-12-12Z"/><path fill="#fff" fill-rule="evenodd" d="M9.24 7.491c0 .785-.591 1.413-1.54 1.413h-.017c-.913 0-1.503-.628-1.503-1.413 0-.8.608-1.41 1.539-1.41.93 0 1.503.61 1.52 1.41Zm-.18 2.528v8.17H6.34v-8.17h2.72Zm9.808 8.17v-4.684c0-2.51-1.341-3.678-3.131-3.678-1.444 0-2.09.793-2.451 1.35v-1.158h-2.72c.036.767 0 8.171 0 8.171h2.72v-4.563c0-.244.017-.488.09-.663.196-.488.643-.993 1.395-.993.984 0 1.378.75 1.378 1.848v4.37h2.719Z" clip-rule="evenodd"/></g><defs><clipPath id="a"><path fill="#fff" d="M.58.08h24v24h-24z"/></clipPath></defs></svg>
